X:574
T: Die Leberwurst (272b), S. 581
N: T0462
O: Luxemburg
S: Singendes Volk, Esch-Alzette, 1937 posth.]
N: Bgen, ? J. Molitor
R: ???]
M: 2/4
L: 1/16
K: F
A2A2 | A2AAA2c2 | c2z2
B2A2 | G2FF2EG2 | C4
B2B2 | B2B2B2d2 | d4
c2c2 | c2c2c2c2 | F4
A2c2 | F4A2c2 | F4z4
f6e2 | e2d2c4 | d6c2 | c2B2A4
G4A2B2 | c2d2B2G2 | F4A2G2 | F4

